images/skills/2-skills-ux-md.svg

<?xml version="1.0" encoding="UTF-8" standalone="no"?>
<svg width="210px" height="163px" viewBox="0 0 210 163" version="1.1" xmlns="http://www.w3.org/2000/svg" xmlns:xlink="http://www.w3.org/1999/xlink" xmlns:sketch="http://www.bohemiancoding.com/sketch/ns">
    <!-- Generator: Sketch 3.2.2 (9983) - http://www.bohemiancoding.com/sketch -->
    <title>ux</title>
    <desc>Created with Sketch.</desc>
    <defs></defs>
    <g id="Medium" stroke="none" stroke-width="1" fill="none" fill-rule="evenodd" sketch:type="MSPage">
        <g id="Group" sketch:type="MSLayerGroup" fill="#FFFFFF">
            <g id="ux" sketch:type="MSShapeGroup">
                <path d="M129.3835,102.801342 C129.209,103.678031 128.5095,104.204145 127.6355,104.204145 C126.7615,104.204145 126.0625,103.678031 125.8875,102.801342 C124.489,97.3656677 121.3425,94.2094862 117.322,94.2094862 C113.1265,94.2094862 108.9315,97.7162431 108.9315,103.678031 C108.9315,111.393197 121.5175,122.61512 127.6355,127.349142 C133.7535,122.61512 146.3395,111.393197 146.3395,103.678031 C146.3395,97.7162431 142.1445,94.2094862 137.949,94.2094862 C133.9285,94.2094862 130.782,97.3656677 129.3835,102.801342" id="Fill-1"></path>
                <path d="M64,51.0751723 L64,56.6738462 L135,56.6738462 L135,51.0751723 C135,48.0945292 132.53,45.64 129.5585,45.64 L69.775,45.64 C66.8035,45.64 64,48.0945292 64,51.0751723 L64,51.0751723 Z M88.4795,49.3217938 C89.528,49.3217938 90.402,50.0229446 90.402,51.0751723 C90.402,52.1274 89.528,53.0040892 88.4795,53.0040892 C87.4305,53.0040892 86.5565,52.1274 86.5565,51.0751723 C86.5565,50.0229446 87.4305,49.3217938 88.4795,49.3217938 L88.4795,49.3217938 Z M80.9625,49.3217938 C82.0115,49.3217938 82.8855,50.0229446 82.8855,51.0751723 C82.8855,52.1274 82.0115,53.0040892 80.9625,53.0040892 C79.914,53.0040892 79.2145,52.1274 79.2145,51.0751723 C79.2145,50.0229446 79.914,49.3217938 80.9625,49.3217938 L80.9625,49.3217938 Z M73.621,49.3217938 C74.6695,49.3217938 75.369,50.0229446 75.369,51.0751723 C75.369,52.1274 74.6695,53.0040892 73.621,53.0040892 C72.572,53.0040892 71.698,52.1274 71.698,51.0751723 C71.698,50.0229446 72.572,49.3217938 73.621,49.3217938 L73.621,49.3217938 Z" id="Fill-2"></path>
                <path d="M102.5,155.112806 C102.5,154.215554 102.978,153.387012 103.753,152.939138 L166,117.00792 L166,46.3010277 L103.753,10.3698092 C102.978,9.92193538 102.5,9.09339385 102.5,8.19614154 L102.5,0 L0,0 L0,163 L102.5,163 L102.5,155.112806 L102.5,155.112806 Z M150.0105,103.678031 C150.0105,115.601105 129.5585,130.505323 128.6845,131.206474 C128.3345,131.382012 127.985,131.557551 127.6355,131.557551 C127.286,131.557551 126.9365,131.382012 126.5865,131.206474 C125.7125,130.505323 105.2605,115.601105 105.2605,103.678031 C105.2605,95.4367508 111.3785,90.3521538 117.322,90.3521538 C120.818,90.3521538 125.0135,92.2805692 127.6355,97.0150923 C130.2575,92.2805692 134.453,90.3521538 137.949,90.3521538 C143.8925,90.3521538 150.0105,95.4367508 150.0105,103.678031 L150.0105,103.678031 Z M129.5585,41.6276923 C134.6275,41.6276923 139,45.9900738 139,51.0751723 L139,81.0586462 C139,82.1108738 137.9615,82.9875631 136.9125,82.9875631 C135.864,82.9875631 135,82.1108738 135,81.0586462 L135,60.6861538 L64,60.6861538 L64,95.9628646 C64,99.1190462 66.8035,101.812308 69.775,101.812308 L95.996,101.812308 C97.0445,101.812308 97.744,102.515465 97.744,103.567692 C97.744,104.61992 97.0445,105.323077 95.996,105.323077 L69.775,105.323077 C64.8525,105.323077 61,101.463738 60.5,96.4172585 L60.5,50.6353231 C61,45.7498369 64.8525,41.6276923 69.775,41.6276923 L129.5585,41.6276923 L129.5585,41.6276923 Z M96.6275,152.651757 C96.238,152.651757 95.845,152.555462 95.478,152.363874 L89.5315,148.930843 L40.256,120.421892 C39.4825,119.97452 39,119.145978 39,118.249729 L39,44.7633108 C39,43.8670615 39.4825,43.0390215 40.256,42.5911477 L94.8665,10.9932215 C96.0635,10.3000954 97.5925,10.7128615 98.2825,11.91204 C98.972,13.1112185 98.5575,14.6434185 97.3635,15.3360431 L44,46.2117538 L44,116.867991 L91.8705,144.497243 L97.877,147.9714 C99.0725,148.663523 99.484,150.196726 98.794,151.396406 C98.3315,152.201877 97.492,152.651757 96.6275,152.651757 L96.6275,152.651757 Z" id="Fill-3"></path>
                <path d="M107.5,0 L107.5,6.74569231 L169.747,42.6769108 C170.522,43.1247846 171,43.9533262 171,44.8505785 L171,118.458369 C171,119.355622 170.522,120.184163 169.747,120.632037 L107.5,156.563255 L107.5,163 L210,163 L210,0 L107.5,0" id="Fill-4"></path>
            </g>
        </g>
    </g>
</svg>

<svg width="210" height="163" viewBox="0 0 210 163" xmlns="http://www.w3.org/2000/svg"><title>ux</title><desc>Created with Sketch.</desc><g fill="#fff"><path d="M129.383 102.8c-.174.878-.874 1.404-1.748 1.404s-1.573-.526-1.748-1.403c-1.398-5.434-4.544-8.59-8.565-8.59-4.196 0-8.39 3.506-8.39 9.468 0 7.715 12.585 18.937 18.703 23.67 6.118-4.733 18.704-15.955 18.704-23.67 0-5.962-4.196-9.47-8.39-9.47-4.02 0-7.168 3.158-8.566 8.593"/><path d="M64 51.075v5.6h71v-5.6c0-2.98-2.47-5.435-5.44-5.435H69.774c-2.972 0-5.775 2.455-5.775 5.435zm24.48-1.753c1.048 0 1.922.7 1.922 1.753 0 1.052-.874 1.93-1.922 1.93-1.05 0-1.924-.878-1.924-1.93s.874-1.753 1.924-1.753zm-7.517 0c1.05 0 1.922.7 1.922 1.753 0 1.052-.874 1.93-1.922 1.93-1.05 0-1.748-.878-1.748-1.93s.7-1.753 1.748-1.753zm-7.342 0c1.05 0 1.75.7 1.75 1.753 0 1.052-.7 1.93-1.75 1.93-1.048 0-1.922-.878-1.922-1.93s.874-1.753 1.923-1.753z"/><path d="M102.5 155.113c0-.897.478-1.726 1.253-2.174L166 117.007V46.3l-62.247-35.93c-.775-.448-1.253-1.277-1.253-2.174V0H0v163h102.5v-7.887zm47.51-51.435c0 11.923-20.45 26.827-21.325 27.528-.35.176-.7.352-1.05.352-.35 0-.7-.176-1.05-.352-.872-.7-21.325-15.605-21.325-27.528 0-8.24 6.118-13.326 12.062-13.326 3.496 0 7.69 1.93 10.313 6.663 2.622-4.734 6.818-6.663 10.314-6.663 5.943 0 12.06 5.085 12.06 13.326zm-20.45-62.05c5.067 0 9.44 4.362 9.44 9.447V81.06c0 1.05-1.038 1.928-2.088 1.928-1.048 0-1.912-.877-1.912-1.93V60.687H64v35.277c0 3.156 2.803 5.85 5.775 5.85h26.22c1.05 0 1.75.702 1.75 1.755 0 1.052-.7 1.755-1.75 1.755h-26.22c-4.922 0-8.775-3.86-9.275-8.906V50.635c.5-4.885 4.353-9.007 9.275-9.007h59.784zM96.626 152.652c-.39 0-.782-.097-1.15-.288l-5.946-3.433-49.274-28.508c-.773-.447-1.256-1.276-1.256-2.172V44.763c0-.896.483-1.724 1.256-2.172l54.61-31.597c1.198-.693 2.727-.28 3.416.92.69 1.198.276 2.73-.918 3.423L44 46.212v70.656l47.87 27.63 6.007 3.473c1.196.694 1.607 2.227.917 3.426-.462.806-1.302 1.256-2.166 1.256z"/><path d="M107.5 0v6.746l62.247 35.93c.775.45 1.253 1.277 1.253 2.175v73.608c0 .898-.478 1.726-1.253 2.174l-62.247 35.93V163H210V0H107.5"/></g></svg>
